imgs/coin_icon.svg

<svg width="80" height="80" viewBox="0 0 80 80" fill="none" xmlns="http://www.w3.org/2000/svg">
<circle cx="40" cy="40" r="40" fill="#E9E9EC"/>
<path fill-rule="evenodd" clip-rule="evenodd" d="M27.5391 27.5391C30.7273 24.3508 35.1359 22.3742 40 22.3742C44.8641 22.3742 49.2727 24.3508 52.4609 27.5391C55.6492 30.7273 57.6258 35.1359 57.6258 40C57.6258 44.8641 55.6492 49.2727 52.4609 52.4609C49.2727 55.6492 44.8641 57.6258 40 57.6258C35.1359 57.6258 30.7273 55.6492 27.5391 52.4609C24.3508 49.2727 22.3742 44.8641 22.3742 40C22.3742 35.1359 24.3508 30.7273 27.5391 27.5391ZM62 40C62 33.9242 59.5336 28.4242 55.5547 24.4453C51.5758 20.4664 46.0758 18 40 18C33.9242 18 28.4242 20.4664 24.4453 24.4453C20.4664 28.4242 18 33.9242 18 40C18 46.0758 20.4664 51.5758 24.4453 55.5547C28.4242 59.5336 33.9242 62 40 62C46.0758 62 51.5758 59.5336 55.5547 55.5547C59.5336 51.5758 62 46.0758 62 40Z" fill="#0B7572"/>
<path fill-rule="evenodd" clip-rule="evenodd" d="M34.9125 34.9898C34.9125 33.4258 35.4625 32.1625 36.5711 31.2C37.3102 30.5469 38.4102 30.1516 39.8625 30.0055V28.957H41.1602V30.0055C42.432 30.1258 43.4461 30.5039 44.1938 31.1227C45.1562 31.9133 45.732 33.0133 45.9211 34.4055L43.6523 34.7492C43.5234 33.8898 43.257 33.2281 42.8445 32.7727C42.4406 32.3172 41.8734 32.0078 41.1602 31.8617V38.1867C42.2602 38.4617 42.9992 38.6852 43.3516 38.8398C44.0305 39.1406 44.5891 39.5016 45.0188 39.9312C45.4484 40.3609 45.7836 40.8766 46.0156 41.4695C46.2477 42.0625 46.368 42.707 46.368 43.3945C46.368 44.9156 45.8781 46.1789 44.9156 47.2016C43.9531 48.2242 42.6984 48.7656 41.1602 48.8344V51.0516H39.8625V48.8602C38.7625 48.7227 37.8773 48.4734 37.1898 48.1211C36.5023 47.7688 35.9094 47.193 35.4109 46.4109C34.9125 45.6203 34.6203 44.6578 34.543 43.5234L36.7516 43.1109C36.9234 44.2883 37.2242 45.1562 37.6539 45.7063C38.2727 46.4883 39.0117 46.918 39.8711 47.0125V40.0344C38.9688 39.8625 38.0492 39.5102 37.1039 38.9859C36.4078 38.5906 35.8664 38.0578 35.4883 37.3617C35.1102 36.6742 34.9211 35.8922 34.9211 35.007L34.9125 34.9898ZM56.1562 40C56.1562 35.5398 54.3516 31.5008 51.4211 28.5789C48.4992 25.657 44.4602 23.8438 40 23.8438C35.5398 23.8438 31.5008 25.6484 28.5789 28.5789C25.657 31.5008 23.8438 35.5398 23.8438 40C23.8438 44.4602 25.6484 48.4992 28.5789 51.4211C31.5008 54.343 35.5398 56.1562 40 56.1562C44.4602 56.1562 48.4992 54.3516 51.4211 51.4211C54.343 48.4992 56.1562 44.4602 56.1562 40Z" fill="#0B7572"/>
<path fill-rule="evenodd" clip-rule="evenodd" d="M39.8626 37.9031V31.8359C39.0118 31.9648 38.3329 32.3086 37.8431 32.8586C37.3532 33.4086 37.104 34.0617 37.104 34.8266C37.104 35.5742 37.3103 36.2016 37.7313 36.7C38.1524 37.207 38.8571 37.6109 39.854 37.9031H39.8626Z" fill="#0B7572"/>
<path fill-rule="evenodd" clip-rule="evenodd" d="M44.0993 43.5319C44.0993 42.7413 43.9017 42.0968 43.5063 41.6155C43.111 41.1343 42.3204 40.696 41.1431 40.3179V46.9952C41.9938 46.8921 42.6985 46.5226 43.2571 45.8866C43.8157 45.2507 44.0907 44.4687 44.0907 43.5319H44.0993Z" fill="#0B7572"/>
</svg>

<svg xmlns="http://www.w3.org/2000/svg" width="80" height="80" fill="none"><circle cx="40" cy="40" r="40" fill="#E9E9EC"/><path fill="#0B7572" fill-rule="evenodd" d="M27.54 27.54A17.576 17.576 0 0 1 40 22.373c4.864 0 9.273 1.977 12.46 5.165A17.576 17.576 0 0 1 57.627 40c0 4.864-1.977 9.273-5.165 12.46A17.576 17.576 0 0 1 40 57.627a17.576 17.576 0 0 1-12.46-5.165A17.576 17.576 0 0 1 22.373 40c0-4.864 1.977-9.273 5.165-12.46ZM62 40a21.933 21.933 0 0 0-6.445-15.555A21.933 21.933 0 0 0 40 18a21.933 21.933 0 0 0-15.555 6.445A21.933 21.933 0 0 0 18 40a21.933 21.933 0 0 0 6.445 15.555A21.933 21.933 0 0 0 40 62a21.933 21.933 0 0 0 15.555-6.445A21.933 21.933 0 0 0 62 40Z" clip-rule="evenodd"/><path fill="#0B7572" fill-rule="evenodd" d="M34.913 34.99c0-1.564.55-2.828 1.658-3.79.74-.653 1.84-1.048 3.291-1.194v-1.049h1.298v1.049c1.272.12 2.286.498 3.034 1.117.962.79 1.538 1.89 1.727 3.283l-2.269.343c-.129-.86-.395-1.52-.808-1.976-.403-.456-.97-.765-1.684-.911v6.325c1.1.275 1.84.498 2.192.653.679.3 1.237.662 1.667 1.091.43.43.765.946.997 1.538.232.593.352 1.238.352 1.925 0 1.522-.49 2.785-1.452 3.808-.963 1.022-2.218 1.564-3.756 1.632v2.218h-1.297V48.86c-1.1-.137-1.986-.387-2.673-.739-.688-.352-1.28-.928-1.78-1.71-.497-.79-.79-1.753-.867-2.888l2.209-.412c.171 1.177.472 2.045.902 2.595.619.782 1.358 1.212 2.217 1.306v-6.978c-.902-.172-1.822-.524-2.767-1.048a4.08 4.08 0 0 1-1.616-1.624c-.378-.688-.567-1.47-.567-2.355l-.008-.017ZM56.156 40c0-4.46-1.804-8.5-4.735-11.421A16.108 16.108 0 0 0 40 23.844c-4.46 0-8.5 1.804-11.421 4.735A16.108 16.108 0 0 0 23.844 40c0 4.46 1.804 8.5 4.735 11.421A16.108 16.108 0 0 0 40 56.156c4.46 0 8.5-1.804 11.421-4.735A16.108 16.108 0 0 0 56.156 40Z" clip-rule="evenodd"/><path fill="#0B7572" fill-rule="evenodd" d="M39.863 37.903v-6.067c-.851.129-1.53.473-2.02 1.023-.49.55-.739 1.203-.739 1.968 0 .747.206 1.375.627 1.873.421.507 1.126.91 2.123 1.203h.009ZM44.1 43.532c0-.79-.198-1.435-.594-1.916-.395-.482-1.186-.92-2.363-1.298v6.677a3.24 3.24 0 0 0 2.114-1.108c.559-.636.834-1.418.834-2.355h.008Z" clip-rule="evenodd"/></svg>
